svgs/duotone/bed.svg

<svg xmlns="http://www.w3.org/2000/svg" viewBox="0 0 640 512"><!--! Font Awesome Pro 6.6.0 by @fontawesome - https://fontawesome.com License - https://fontawesome.com/license (Commercial License) Copyright 2024 Fonticons, Inc. --><path class="fa-secondary" style="fill:var(--fa-secondary-color,inherit);opacity:var(--fa-secondary-opacity,.4);" d="M256 208A80 80 0 1 1 96 208a80 80 0 1 1 160 0zm32-48c0-17.7 14.3-32 32-32l224 0c53 0 96 43 96 96l0 64 0 32-32 0-288 0-32 0 0-32 0-128z"/><path class="fa-primary" style="fill:var(--fa-primary-color,inherit);opacity:var(--fa-primary-opacity,1);" d="M32 32c17.7 0 32 14.3 32 32l0 256 544 0 32 0 0 32 0 96c0 17.7-14.3 32-32 32s-32-14.3-32-32l0-32L64 416l0 32c0 17.7-14.3 32-32 32s-32-14.3-32-32L0 64C0 46.3 14.3 32 32 32z"/></svg>

<svg xmlns="http://www.w3.org/2000/svg" viewBox="0 0 640 512"><!--! Font Awesome Pro 6.4.2 by @fontawesome - https://fontawesome.com License - https://fontawesome.com/license (Commercial License) Copyright 2023 Fonticons, Inc. --><path class="fa-primary" style="fill:var(--fa-primary-color,inherit);opacity:var(--fa-primary-opacity,1);" d="M32 32c17.7 0 32 14.3 32 32V320H608h32v32 96c0 17.7-14.3 32-32 32s-32-14.3-32-32V416H64v32c0 17.7-14.3 32-32 32s-32-14.3-32-32V64C0 46.3 14.3 32 32 32z"/><path class="fa-secondary" style="fill:var(--fa-secondary-color,inherit);opacity:var(--fa-secondary-opacity,.4);" d="M176 128a80 80 0 1 1 0 160 80 80 0 1 1 0-160zm112 32c0-17.7 14.3-32 32-32H544c53 0 96 43 96 96v64 32H608 320 288V288 160z"/></svg>
